X: 20194
T: Jockey's Breakfast, The
R: jig
M: 6/8
K: Cmajor
B,|:G,CC EGG|A/B/cA GEG|A/B/cA GEE|EDC D3|
G,CC EGG|A/B/cA GEG|A/B/cA GEC|1 DCB, C2B,:|2 DCD C2A||
|:Gcc ecc|gcc ecc|Gcc ece|eBc d3|
[1 Gcc ecc|gcc ecG|A/B/cA GEC|DCD C2A:|
[2 cde geg|aga gec|AcA GEC|DCD C2||

